X: 113
M: C
L: 1/8
K: D
(A/G/) |\
(FA).A.B (AB).A.F | G/G/GG2 GABG | (FA)(AB) (AB)(AF) | GAFd E2(D ||
a) |\
(fa).a.b (ab).a.f | g/g/gg2 gabg | (fa).a.b (ab).a.f | gafg e2d |]


